X:230
T:Polska efter August Fredin
R:sl\"angpolska
H:upptecknad i Loftahammar av August Fredin. Jfr #34, #79, #189
A:Sm{\aa}land
Z:id:hn-sp-230
M:3/4
L:1/16
K:D
d2fd c2ec d4 | f2ed cdef g3e | f2ef ageg f2c2 | d3f edcB A4 |
d2fd c2ec d4 | f2ed cdef g3e | f2ef ageg f2d2 | c2ec d8 :|
|: d2de fdfa d'2d'2 | d2de fdfa d'4 | d3d fdfa d'2d'2 |
d3d fdfa d'4 | d'2d'c' b2ba g2b2 | e3f gfge f2a2 | a2fa g2eg f2d2 |
c2ec d8 :|

